svg/color/ht.svg

<svg height="32" viewBox="0 0 32 32" width="32" xmlns="http://www.w3.org/2000/svg"><g fill="none"><circle cx="16" cy="16" fill="#2a3069" r="16"/><g fill="#fff" transform="translate(8 2)"><path d="m10.3466667 8.53333333c0-3.52-1.7066667-6.50666666-2.9866667-7.46666666 0 0-.10666667-.10666667-.10666667.10666666-.10666666 6.72-3.52 8.53333334-5.33333333 11.09333337-4.37333333 5.6533333-.32 11.9466666 3.84 13.12 2.34666667.64-.53333333-1.1733334-.85333333-4.9066667-.53333334-4.6933333 5.44000003-8.1066667 5.44000003-11.94666667"/><path d="m12.5866667 10.88c-.2133334.8533333-1.0666667 2.6666667-2.24 4.3733333-3.9466667 5.6533334-1.7066667 8.4266667-.4266667 9.92.7466667.8533334 0 0 1.8133333-.8533333.1066667-.1066667 3.6266667-1.92 3.9466667-6.08.4266667-4.0533333-2.1333333-6.6133333-3.0933333-7.36"/></g></g></svg>

<?xml version="1.0" encoding="UTF-8"?>
<svg width="32px" height="32px" viewBox="0 0 32 32" version="1.1" xmlns="http://www.w3.org/2000/svg" xmlns:xlink="http://www.w3.org/1999/xlink">
    <!-- Generator: Sketch 50 (54983) - http://www.bohemiancoding.com/sketch -->
    <title>color/ht</title>
    <desc>Created with Sketch.</desc>
    <defs></defs>
    <g id="color/ht" stroke="none" stroke-width="1" fill="none" fill-rule="evenodd">
        <g id="Group" fill="#2A3069" fill-rule="nonzero">
            <circle id="Oval" cx="16" cy="16" r="16"></circle>
        </g>
        <g id="Huobi-Token-(HT)" transform="translate(8.000000, 2.000000)" fill="#FFFFFF" fill-rule="nonzero">
            <path d="M10.3466667,8.53333333 C10.3466667,5.01333333 8.64,2.02666667 7.36,1.06666667 C7.36,1.06666667 7.25333333,0.96 7.25333333,1.17333333 C7.25333333,1.17333333 7.25333333,1.17333333 7.25333333,1.17333333 C7.14666667,7.89333333 3.73333333,9.70666667 1.92,12.2666667 C-2.45333333,17.92 1.6,24.2133333 5.76,25.3866667 C8.10666667,26.0266667 5.22666667,24.2133333 4.90666667,20.48 C4.37333333,15.7866667 10.3466667,12.3733333 10.3466667,8.53333333" id="Fill-3"></path>
            <path d="M12.5866667,10.88 C12.5866667,10.88 12.5866667,10.88 12.5866667,10.88 C12.3733333,11.7333333 11.52,13.5466667 10.3466667,15.2533333 C6.4,20.9066667 8.64,23.68 9.92,25.1733333 C10.6666667,26.0266667 9.92,25.1733333 11.7333333,24.32 C11.84,24.2133333 15.36,22.4 15.68,18.24 C16.1066667,14.1866667 13.5466667,11.6266667 12.5866667,10.88" id="Fill-5"></path>
        </g>
    </g>
</svg>
